!!!!SEGMENT: pl-wtm--r-1227--009_lodwigowski-edward-stefan-krakowiak.krn
!!!id: 18xx:1949
!!!COM: Åodwigowski, Edward Stefan
!!!OTL: Krakowiak
!!!PDT:
!!!SMS-siglum: PL-Wtm
!!!SMS-shelfmark: R 1227
!!!NIFC-rismID: 1001084042
!!!URL-scan: http://repozytorium.nifc.pl/skany/pl-wtm-nut--r1226-1227
!!!ONB-nifc: UWAGA: No. 81
!!!SMS-variant:
!!!SMS-altvar:
!!!OMD: Allegretto
**kern	**fing	**kern	**fing
*part1	*part1	*part1	*part1
*staff2	*staff2	*staff1	*staff1
*I"Fortepian	*	*I"Fortepian	*
*>[A,A]	*>[A,A]	*>[A,A]	*>[A,A]
*>A	*>A	*>A	*>A
*clefF4	*	*clefG2	*
*k[f#c#g#]	*	*k[f#c#g#]	*
*M2/4	*	*M2/4	*
*all\right	*	*all\right	*
=1	=1	=1	=1
*^	*	*	*
*2\right	*2\right	*below	*	*
!	!	!	!LO:TX:a:Bi:t=No 81.	!
!	!LO:N:vis=2	!	!LO:TX:a:i:t=Krakowiak.	!
2A/	8A\L	4	(16a\LL	1
.	.	.	16cc#\JJ	2
.	8e\	.	4ee\)	4
.	8c#\	.	.	.
.	.	.	(8qff#/	5
.	8e\J	.	(16ee\LL)	.
.	.	.	16dd#X\JJ	.
=2	=2	=2	=2	=2
!	!LO:N:vis=2	!	!	!
2A/	8A\L	.	8ee'\L)	.
.	8e\	.	(8ee\	.
.	8c#\	.	8cc#\	.
.	8e\J	.	8a\J)	.
=3	=3	=3	=3	=3
!	!LO:N:vis=2	!	!	!
2E/	8E\L	5	(8b\L	.
.	8d\	.	8cc#\	.
.	8G#\	.	8dd\	.
.	8d\J	.	8ee\J)	.
=4	=4	=4	=4	=4
!	!LO:N:vis=2	!	!	!
2A/	8A\L	4	8cc#\	.
.	8e\	.	4a^\	.
.	8c#\	.	.	.
.	8e\J	.	8r	.
=5	=5	=5	=5	=5
!	!LO:N:vis=2	!	!	!
2E/	8E\L	.	(8b\L	.
.	8d\	.	8cc#\	.
.	8G#\	.	8dd\	.
.	8d\J	.	8ee\J)	.
=6	=6	=6	=6	=6
!	!LO:N:vis=2	!	!	!
2A/	8A\L	.	8cc#\	.
.	8e\	.	4a^\	.
.	8c#\	.	.	.
.	8e\J	.	8r	.
!!LO:LB:g=original
=7||	=7||	=7||	=7||	=7||
!	!LO:N:vis=2	!	!	!
2E/	8E\L	.	(8e/L	1
.	8d\	.	8g#/J)	3
.	8B\	.	(4g#^/	2
.	8d\J	.	.	.
=8	=8	=8	=8	=8
!	!LO:N:vis=2	!	!	!
2A/	8A\L	.	8a|/)	1
.	8e\	.	4cc#^\	.
.	8c#\	.	.	.
.	8e\J	.	8cc#\	.
=9	=9	=9	=9	=9
!	!LO:N:vis=2	!	!	!
2E/	8E\L	.	(8b\L	2
.	8d\	.	8cc#\	.
.	8G#\	.	8dd\	.
.	8d\J	.	8ee\J	.
=10	=10	=10	=10	=10
!	!LO:N:vis=2	!	!	!
2A/	8A\L	.	8cc#|\)	.
.	8e\	.	4a^\	.
.	8c#\	.	.	.
.	8e\J	.	8r	.
=11	=11	=11	=11	=11
!	!LO:N:vis=2	!	!	!
2E/	8E\L	.	(8ee\L	1
.	8d\	.	8gg#\J)	3
.	8B\	.	4gg#^\	2
.	8d\J	.	.	.
=12	=12	=12	=12	=12
!	!LO:N:vis=2	!	!	!
2A/	8A\L	.	8aa|\	.
.	8e\	.	4ccc#^\	.
.	8c#\	.	.	.
.	8e\J	.	8ccc#m\	.
=13	=13	=13	=13	=13
!	!LO:N:vis=2	!	!	!
2E/	8E\L	.	(8bb\L	.
.	8d\	.	8ccc#\	.
.	8G#\	.	8ddd\	.
.	8d\J	.	8eee\J	.
*v	*v	*	*	*
=14	=14	=14	=14
8c#L 8A'\	.	8ccc#|\L)	.
8c#J 8A'\	.	8aa'\J	.
4r	.	4r	.
==:|!	==:|!	==:|!	==:|!
*-	*-	*-	*-
!!!system-decoration: {p1}
!!!RDF**kern: > = above
!!!RDF**kern: < = below
!!!RDF**kern: | = vertical stroke
!!!ENC: Marcin Jachim
!!!END: 2021-04-17
!!!ENC: Andrzej Kubiczek
!!!END: 2021-05-02
